tenants/kidsweek/icons/channel_pinterest.svg

<svg fill="none" height="32" viewBox="0 0 32 32" width="32" xmlns="http://www.w3.org/2000/svg" xmlns:xlink="http://www.w3.org/1999/xlink"><clipPath id="a"><path d="m0 0h32v32h-32z"/></clipPath><g clip-path="url(#a)"><circle cx="16" cy="16" fill="#e4003a" r="16"/><path d="m16.5 6.29785c-4.275 0-8.5 2.74089-8.5 7.17685 0 2.821 1.65 4.4239 2.65 4.4239.4125 0 .65-1.106.65-1.4186 0-.3726-.9875-1.1661-.9875-2.7168 0-3.2218 2.55-5.50585 5.85-5.50585 2.8375 0 4.9375 1.55077 4.9375 4.39985 0 2.1278-.8875 6.1189-3.7625 6.1189-1.0375 0-1.925-.7213-1.925-1.7551 0-1.5147 1.1-2.9813 1.1-4.5441 0-2.65276-3.9125-2.1719-3.9125 1.0338 0 .6732.0875 1.4186.4 2.0316-.575 2.3803-1.75 5.9266-1.75 8.379 0 .7574.1125 1.5027.1875 2.26.1417.1523.0708.1363.2875.0601 2.1-2.7649 2.025-3.3059 2.975-6.9243.5125.9377 1.8375 1.4426 2.8875 1.4426 4.425 0 6.4125-4.1474 6.4125-7.8861 0-3.97911-3.575-6.57575-7.5-6.57575z" fill="#fff"/></g></svg>

<svg width="32" height="32" viewBox="0 0 32 32" fill="none" xmlns="http://www.w3.org/2000/svg">
<g clip-path="url(#clip0_2137_28845)">
<circle cx="16" cy="16" r="16" fill="#E4003A"/>
<path d="M16.5 6.29785C12.225 6.29785 8 9.03874 8 13.4747C8 16.2957 9.65 17.8986 10.65 17.8986C11.0625 17.8986 11.3 16.7926 11.3 16.48C11.3 16.1074 10.3125 15.3139 10.3125 13.7632C10.3125 10.5414 12.8625 8.25735 16.1625 8.25735C19 8.25735 21.1 9.80812 21.1 12.6572C21.1 14.785 20.2125 18.7761 17.3375 18.7761C16.3 18.7761 15.4125 18.0548 15.4125 17.021C15.4125 15.5063 16.5125 14.0397 16.5125 12.4769C16.5125 9.82414 12.6 10.305 12.6 13.5107C12.6 14.1839 12.6875 14.9293 13 15.5423C12.425 17.9226 11.25 21.4689 11.25 23.9213C11.25 24.6787 11.3625 25.424 11.4375 26.1813C11.5792 26.3336 11.5083 26.3176 11.725 26.2414C13.825 23.4765 13.75 22.9355 14.7 19.3171C15.2125 20.2548 16.5375 20.7597 17.5875 20.7597C22.0125 20.7597 24 16.6123 24 12.8736C24 8.89449 20.425 6.29785 16.5 6.29785Z" fill="white"/>
</g>
<defs>
<clipPath id="clip0_2137_28845">
<rect width="32" height="32" fill="white"/>
</clipPath>
</defs>
</svg>
